X: 1219
T: Karcığar Peşrev
C: Tatyos Efendi
O: Turkey
F: http://compmusic.upf.edu/node/140
N: karcigar--pesrev--cifteduyek----tatyos_efendi
N: makam= karcigar
N: form= pesrev
N: usul= cifteduyek = 16/4
M: 16/4
L: 1/16
K: C _2/4B _3/4e ^3/4f 
Q: 1/4=75
%%MIDI tuningsystem comma53
c4 d4 d2 e f e d c2  | d3 c B2 c2 d2 e2 f2 g a  | \
w:  1. HANE  |   | 
f2 e2 d2 c2 f e d4 c2  | 
w:   | 
c d c B B c B A A6 c2  | B3 A G4 d3 c B2 c2  | \
w:   |   | 
A4 B2 c2 d2 e2 d2 g2  | 
w:   | 
g f2 e f e e d d3 =e d c B A  | G3 A B c d _2/4e d c B c d4  | 
w:   |   | 
e f g4 a2 f3 e d2 c2  | d e f4 g2 e3 d c4  | \
w:   |   | 
d3 e f2 g2 a2 _b4 b a  | 
w:   | 
a g g f g3 a _b a g f e d c2  | d3 c f2 e d d3 c e d c B  | 
w:   |   | 
c2 d2 c2 B2 A B A B c2 B A  | G3 A B2 c2 d2 c B f e d c  | 
w:   |   | 
c3 B B c B A A B c d =e4  | d2 =e4 a2 _1/4e2 _2/4e d _3/4e d c2  | \
w:   |  TESLİM  | 
d e d e g f e f d3 g f g a2  | 
w:   | 
f g a4 a =e _1/4e3 d g f _3/4e d  | \
w:   | 
c3 B c B B A A2 d =e d c B A  | 
w:   | 
G2 d4 B d c B A c B A G2  | z2 A4 B2 c2 d e g f e d  | 
w:   |   | 
d2 c4 c B B3 A A c B A  | A6 =e =f e d c B A4  | \
w:   |  2. HANEYE  | 
G4 A4 A4 d2 =e2  | 
w:  2. HANE  | 
=e4 e g f g e4 (3g2f2g2  | =e2 =f2 d2 e2 c3 B A4  | \
w:   |   | 
z2 g4 g f f3 =e d4  | 
w:   | 
d3 =e f g a b a g f g a4  | g2 a2 f2 a2 g3 f =e4  | \
w:   |   | 
=e2 =f2 e2 g2 f3 e d4  | 
w:   | 
d2 =e2 d2 =f2 e3 d c4  | d2 e f e d c2 g6 f2  | \
w:   |   | 
f g f e e f e d d c c B c4  | 
w:   | 
d3 e f2 g2 a2 _b4 b a  | a g g f g3 a _b a g f e d c2  | 
w:   |   | 
d3 c f2 e d d3 c e d c B  | c2 d2 c2 B2 A B A B c2 B A  | 
w:   |   | 
G3 A B2 c2 d2 c B f e d c  | c3 B B c B A A B c d =e4  | 
w:   |   | 
d2 =e4 a2 _1/4e2 _2/4e d _3/4e d c2  | \
w:  TESLİM  | 
d e d e g f e f d3 g f g a2  | 
w:   | 
f g a4 a =e _1/4e3 d g f _3/4e d  | \
w:   | 
c3 B c B B A A2 d =e d c B A  | 
w:   | 
G2 d4 B d c B A c B A G2  | z2 A4 B2 c2 d e g f e d  | 
w:   |   | 
d2 c4 c B B3 A A c B A  | A6 g2 f2 a2 g4  | \
w:   |  3. HANEYE  | 
z4 f2 g2 g8  | g2 a2 g2 f2 =e2 f2 g4  | 
w:   |   | 
c2 g4 a2 g3 =f _2/4e2 g2  | =f2 g a g f _1/4e2 g ^3/4f e ^d e2 =f2  | \
w:   |   | 
_1/4e4 c3 ^d e2 =f2 g2 a2  | 
w:   | 
g2 c'4 _b a a g g f g4  | f g a4 g f g =f _1/4e ^d e4  | \
w:   |   | 
c3 ^d _1/4e2 =f2 e2 g2 f2 e2  | 
w:   | 
_1/4e3 d c2 g2 f g a4 g f  | f e e d d c c B c4 z4  | \
w:   |   | 
d3 _7/8e f g a g f3 _3/4e f e e d  | 
w:   | 
d6 a2 g a g f e d c2  | d3 c f2 e d d3 c e d c B  | \
w:   |   | 
c2 d2 c2 B2 A B A B c2 B A  | 
w:   | 
G3 A B2 c2 d2 c B f e d c  | c3 B B c B A A B c d =e4  | 
w:   |   | 
d2 =e4 a2 _1/4e2 _2/4e d _3/4e d c2  | \
w:  TESLİM  | 
d e d e g f e f d3 g f g a2  | 
w:   | 
f g a4 a =e _1/4e3 d g f _3/4e d  | \
w:   | 
c3 B c B B A A2 d =e d c B A  | 
w:   | 
G2 d4 B d c B A c B A G2  | z2 A4 B2 c2 d e g f e d  | 
w:   |   | 
d2 c4 c B B3 A A c B A  | A6 g2 f2 g2 a4  | \
w:   |  4. HANEYE  | 
z4 f2 g2 a6 c'2  | c'3 _b b3 a a3 g g3 f  | 
w:   |   | 
f3 e e3 d g f e d c4  | c d c B c A B G A4 z4  | \
w:   |   | 
G2 B4 d2 c3 B A4  | 
w:   | 
d2 =e4 a2 _3/4e3 d e d c2  | B c d4 =e2 c3 B A4  | \
w:   |   | 
G2 A4 c2 B3 A G4  | 
w:   | 
z2 c4 d2 e3 c d3 B  | c2 g4 f e e d c B c4  | \
w:   |   | 
d3 e f g a g f3 e f e e d  | 
w:   | 
d6 a2 g a g f e d c2  | d3 c f2 e d d3 c e d c B  | \
w:   |   | 
c2 d2 c2 B2 A B A B c2 B A  | 
w:   | 
G3 A B2 c2 d2 c B f e d c  | c3 B B c B A A B c d =e4  | 
w:   |   | 
d2 =e4 a2 _1/4e2 _2/4e d _3/4e d c2  | \
w:  TESLİM  | 
d e d e g f e f d3 g f g a2  | 
w:   | 
f g a4 a =e _1/4e3 d g f _3/4e d  | \
w:   | 
c3 B c B B A A2 d =e d c B A  | 
w:   | 
G2 d4 B d c B A c B A G2  | z2 A4 B2 c2 d e g f e d  | 
w:   |   | 
d2 c4 c B B3 A A c B A  | A6 =e =f e d c B A4  | |


